public/images/hashed/e31b480baf36e02043f43edc69a309ac.svg

<svg xmlns="http://www.w3.org/2000/svg" width="80" height="80"><defs><linearGradient id="a" x1="0%" x2="100%" y1="100%" y2="0%"><stop offset="0%" stop-color="#BD0816"/><stop offset="100%" stop-color="#FF5252"/></linearGradient></defs><g fill="none" fill-rule="evenodd"><path fill="url(#a)" d="M0 0h80v80H0z"/><path fill="#FFF" d="m66 46.001-14.875-4.299v-5.279L66 40.75v5.251Zm-8.148 12.917-3.715 3.714-7.689-13.781 3.736-3.736 7.668 13.803ZM44.5 47.971a.998.998 0 0 0-.187 1.154h-6.767c-.245 0-.474.089-.651.24L32.029 44.5a.995.995 0 0 0-1.154-.188v-6.767c0-.245-.089-.474-.24-.651l4.865-4.866a.999.999 0 0 0 .188-1.153h6.766c.245 0 .474-.09.651-.241l4.866 4.866a.999.999 0 0 0 1.154.187v6.767c0 .245.089.474.24.651L44.5 47.971ZM39.249 66h-5.25l4.299-14.875h5.279L39.249 66Zm-18.167-8.149-3.716-3.715 13.783-7.688 3.735 3.735-13.802 7.668ZM14 39.249v-5.251l14.875 4.299v5.279L14 39.249Zm8.148-18.167 3.715-3.715 7.689 13.781-3.736 3.736-7.668-13.802ZM40.751 14h5.25l-4.299 14.875h-5.279L40.751 14Zm18.167 8.148 3.716 3.715-13.783 7.688-3.735-3.735 13.802-7.668Zm8.361 16.892-15.88-4.621 13.365-7.454a1 1 0 0 0 .219-1.58l-5.184-5.184a.998.998 0 0 0-1.193-.167l-14.613 8.118 4.299-14.875A1.002 1.002 0 0 0 47.331 12H40a1 1 0 0 0-.96.72L34.42 28.6l-7.455-13.364a1.002 1.002 0 0 0-1.58-.219l-5.184 5.184a1 1 0 0 0-.167 1.193l8.117 14.612-14.874-4.298a.998.998 0 0 0-1.277.96V40a1 1 0 0 0 .721.959l15.88 4.621-13.365 7.454a1.002 1.002 0 0 0-.219 1.58l5.184 5.184a1 1 0 0 0 1.193.167l14.613-8.118-4.299 14.875A1.002 1.002 0 0 0 32.669 68H40a1 1 0 0 0 .96-.721l4.62-15.88 7.455 13.364a1 1 0 0 0 1.58.219l5.184-5.184a1 1 0 0 0 .167-1.193l-8.117-14.612 14.874 4.299A1.001 1.001 0 0 0 68 47.331V40a1 1 0 0 0-.721-.96Z"/></g></svg>

<?xml version="1.0" encoding="UTF-8"?>
<svg width="80px" height="80px" viewBox="0 0 80 80" version="1.1" xmlns="http://www.w3.org/2000/svg" xmlns:xlink="http://www.w3.org/1999/xlink">
    <!-- Generator: Sketch 64 (93537) - https://sketch.com -->
    <title>Icon-Architecture/64/Arch_Amazon-Chime_64</title>
    <desc>Created with Sketch.</desc>
    <defs>
        <linearGradient x1="0%" y1="100%" x2="100%" y2="0%" id="linearGradient-1">
            <stop stop-color="#BD0816" offset="0%"></stop>
            <stop stop-color="#FF5252" offset="100%"></stop>
        </linearGradient>
    </defs>
    <g id="Icon-Architecture/64/Arch_Amazon-Chime_64" stroke="none" stroke-width="1" fill="none" fill-rule="evenodd">
        <g id="Icon-Architecture-BG/64/Business-Applications" fill="url(#linearGradient-1)">
            <rect id="Rectangle" x="0" y="0" width="80" height="80"></rect>
        </g>
        <path d="M66,46.001 L51.125,41.702 L51.125,36.423 L66,40.75 L66,46.001 Z M57.852,58.918 L54.137,62.632 L46.448,48.851 L50.184,45.115 L57.852,58.918 Z M44.5,47.971 C44.194,48.276 44.121,48.741 44.313,49.125 L37.546,49.125 C37.301,49.125 37.072,49.214 36.895,49.365 L32.029,44.5 C31.837,44.307 31.581,44.207 31.322,44.207 C31.17,44.207 31.017,44.241 30.875,44.312 L30.875,37.545 C30.875,37.3 30.786,37.071 30.635,36.894 L35.5,32.028 C35.806,31.723 35.879,31.258 35.688,30.875 L42.454,30.875 C42.699,30.875 42.928,30.785 43.105,30.634 L47.971,35.5 C48.276,35.806 48.743,35.879 49.125,35.687 L49.125,42.454 C49.125,42.699 49.214,42.928 49.365,43.105 L44.5,47.971 Z M39.249,66 L33.999,66 L38.298,51.125 L43.577,51.125 L39.249,66 Z M21.082,57.851 L17.366,54.136 L31.149,46.448 L34.884,50.183 L21.082,57.851 Z M14,39.249 L14,33.998 L28.875,38.297 L28.875,43.576 L14,39.249 Z M22.148,21.082 L25.863,17.367 L33.552,31.148 L29.816,34.884 L22.148,21.082 Z M40.751,14 L46.001,14 L41.702,28.875 L36.423,28.875 L40.751,14 Z M58.918,22.148 L62.634,25.863 L48.851,33.551 L45.116,29.816 L58.918,22.148 Z M67.279,39.04 L51.399,34.419 L64.764,26.965 C65.037,26.813 65.224,26.54 65.267,26.23 C65.31,25.919 65.205,25.606 64.983,25.385 L59.799,20.201 C59.483,19.885 58.997,19.816 58.606,20.034 L43.993,28.152 L48.292,13.277 C48.379,12.975 48.319,12.65 48.13,12.398 C47.941,12.147 47.646,12 47.331,12 L40,12 C39.556,12 39.164,12.293 39.04,12.72 L34.42,28.6 L26.965,15.236 C26.812,14.963 26.54,14.776 26.229,14.733 C25.923,14.69 25.606,14.795 25.385,15.017 L20.201,20.201 C19.886,20.516 19.817,21.003 20.034,21.394 L28.151,36.006 L13.277,31.708 C12.977,31.619 12.65,31.679 12.399,31.869 C12.147,32.058 12,32.354 12,32.668 L12,40 C12,40.444 12.294,40.835 12.721,40.959 L28.601,45.58 L15.236,53.034 C14.963,53.187 14.776,53.459 14.733,53.77 C14.69,54.08 14.795,54.393 15.017,54.614 L20.201,59.798 C20.518,60.114 21.004,60.182 21.394,59.965 L36.007,51.847 L31.708,66.722 C31.621,67.024 31.681,67.349 31.87,67.601 C32.059,67.852 32.354,68 32.669,68 L40,68 C40.444,68 40.836,67.706 40.96,67.279 L45.58,51.399 L53.035,64.763 C53.187,65.036 53.46,65.223 53.771,65.266 C54.083,65.312 54.394,65.205 54.615,64.982 L59.799,59.798 C60.114,59.483 60.183,58.996 59.966,58.605 L51.849,43.993 L66.723,48.292 C67.022,48.379 67.35,48.319 67.601,48.13 C67.853,47.941 68,47.646 68,47.331 L68,40 C68,39.555 67.706,39.164 67.279,39.04 L67.279,39.04 Z" id="Amazon-Chime_Icon_64_Squid" fill="#FFFFFF"></path>
    </g>
</svg>
